static/img/olake/olake-product-4.svg

<svg width="73" height="72" viewBox="0 0 73 72" fill="none" xmlns="http://www.w3.org/2000/svg">
<circle cx="36.3334" cy="36" r="36" fill="#333333"/>
<path fill-rule="evenodd" clip-rule="evenodd" d="M27.6667 22.6663C27.2247 22.6663 26.8008 22.8419 26.4882 23.1545C26.1757 23.4671 26.0001 23.891 26.0001 24.333V44.333C26.0001 45.6591 26.5269 46.9309 27.4645 47.8685C28.4022 48.8062 29.674 49.333 31.0001 49.333C32.3262 49.333 33.5979 48.8062 34.5356 47.8685C35.4733 46.9309 36.0001 45.6591 36.0001 44.333V24.333C36.0001 23.891 35.8245 23.4671 35.5119 23.1545C35.1994 22.8419 34.7754 22.6663 34.3334 22.6663H27.6667ZM37.8533 49.333H51.0001C51.4421 49.333 51.866 49.1574 52.1786 48.8449C52.4912 48.5323 52.6667 48.1084 52.6667 47.6663V40.9997C52.6667 40.5576 52.4912 40.1337 52.1786 39.8212C51.866 39.5086 51.4421 39.333 51.0001 39.333H47.8076L37.8533 49.333ZM51.1242 36.0012C52.4053 36.033 53.6272 36.5558 54.5356 37.4641C55.4733 38.4018 56.0001 39.6736 56.0001 40.9997V47.6663C56.0001 48.9924 55.4733 50.2642 54.5356 51.2019C53.5979 52.1396 52.3262 52.6663 51.0001 52.6663H31.0001C28.7899 52.6663 26.6703 51.7884 25.1075 50.2256C23.5447 48.6628 22.6667 46.5431 22.6667 44.333V24.333C22.6667 23.0069 23.1935 21.7352 24.1312 20.7975C25.0689 19.8598 26.3407 19.333 27.6667 19.333H34.3334C35.6595 19.333 36.9313 19.8598 37.8689 20.7975C38.8066 21.7352 39.3334 23.0069 39.3334 24.333V25.3093L40.3195 24.3232C40.3199 24.3228 40.3204 24.3224 40.3208 24.322C40.8478 23.7935 41.474 23.3743 42.1634 23.0885C42.8534 22.8024 43.5932 22.6556 44.3401 22.6565C45.087 22.6574 45.8264 22.8059 46.5158 23.0936C47.204 23.3808 47.8287 23.801 48.3542 24.3301C48.3551 24.331 48.3559 24.3318 48.3567 24.3327L51.5015 27.4774C52.04 27.9986 52.4698 28.6216 52.766 29.3102C53.0645 30.0042 53.2212 30.7508 53.227 31.5063C53.2327 32.2617 53.0873 33.0107 52.7993 33.7091C52.5121 34.4057 52.0889 35.038 51.5545 35.569C51.553 35.5704 51.5516 35.5718 51.5502 35.5732L51.1242 36.0012ZM39.3334 30.0234V43.1212L49.2033 33.2061C49.4242 32.9871 49.5991 32.7261 49.7176 32.4385C49.8362 32.151 49.8961 31.8426 49.8937 31.5315C49.8914 31.2204 49.8268 30.913 49.7039 30.6272C49.581 30.3415 49.4022 30.0832 49.178 29.8675C49.1702 29.86 49.1625 29.8525 49.1549 29.8449L45.9901 26.68C45.7735 26.4617 45.5159 26.2883 45.232 26.1698C44.9482 26.0514 44.6437 25.9902 44.3362 25.9898C44.0286 25.9895 43.724 26.0499 43.4399 26.1677C43.1558 26.2855 42.8977 26.4583 42.6806 26.6761L39.3334 30.0234ZM29.3334 44.333C29.3334 43.4125 30.0796 42.6663 31.0001 42.6663H31.0167C31.9372 42.6663 32.6834 43.4125 32.6834 44.333C32.6834 45.2535 31.9372 45.9997 31.0167 45.9997H31.0001C30.0796 45.9997 29.3334 45.2535 29.3334 44.333Z" fill="#193AE6"/>
</svg>

<svg xmlns="http://www.w3.org/2000/svg" width="73" height="72" fill="none" viewBox="0 0 73 72"><circle cx="36.333" cy="36" r="36" fill="#333"/><path fill="#193ae6" fill-rule="evenodd" d="M27.667 22.666A1.667 1.667 0 0 0 26 24.333v20a5 5 0 1 0 10 0v-20a1.667 1.667 0 0 0-1.667-1.667zm10.186 26.667H51a1.667 1.667 0 0 0 1.667-1.667V41A1.666 1.666 0 0 0 51 39.333h-3.192zm13.271-13.332A5 5 0 0 1 56 41v6.666a5 5 0 0 1-5 5H31a8.333 8.333 0 0 1-8.333-8.333v-20a5 5 0 0 1 5-5h6.666a5 5 0 0 1 5 5v.976l.986-.986.002-.001a5.667 5.667 0 0 1 8.036.01l3.145 3.145a5.667 5.667 0 0 1 .052 8.092l-.004.004zm-11.79-5.978v13.098l9.87-9.915a2.33 2.33 0 0 0-.05-3.361L45.99 26.68a2.335 2.335 0 0 0-3.31-.004zm-10 14.31c0-.92.746-1.667 1.666-1.667h.017a1.667 1.667 0 1 1 0 3.334H31c-.92 0-1.667-.746-1.667-1.667" clip-rule="evenodd"/></svg>
